X:1
T:Title
T:Bransle Charlott
T:Arbeau 1589
T:D/G Voice - use 'g' drones
C:Composer
L:1/8
M:2/2
K:F
V:1 treble nm="Piano" snm="Pno."
V:1
|:"_Keys:" G2 G2 B2 B2 | c2 c2 d4 | g2 z2 d2 z2 | c2 A2 B2 c2 |"_Keys:" d4 G4 :: G2 d2 d2 d2 | %6
w: 3 3 5 5|6 6 7|10 7|6 4 5 6|7 3|3 7 7 7|
 c2 d2 B4 | d2 z2 c2 z2 |"_Keys:" G2 A2 B2 c2 | A4 G4 :| %10
w: 6 7 5|7 6|3 4 5 6|4 3|

